src/assets/icons/restoring.svg

<?xml version="1.0" encoding="UTF-8"?>
<svg width="120px" height="120px" viewBox="0 0 120 120" version="1.1" xmlns="http://www.w3.org/2000/svg" xmlns:xlink="http://www.w3.org/1999/xlink">
    <title>编组 6备份 2</title>
    <defs>
        <linearGradient x1="100%" y1="26.2187872%" x2="33.1908384%" y2="45.6658536%" id="linearGradient-1">
            <stop stop-color="#33618E" offset="0%"></stop>
            <stop stop-color="#3D3835" offset="100%"></stop>
        </linearGradient>
        <linearGradient x1="69.7273555%" y1="29.4676991%" x2="50%" y2="50%" id="linearGradient-2">
            <stop stop-color="#FFFFFF" stop-opacity="0.9" offset="0%"></stop>
            <stop stop-color="#FFFFFF" stop-opacity="0" offset="100%"></stop>
        </linearGradient>
        <radialGradient cx="7.44159113%" cy="6.81581274%" fx="7.44159113%" fy="6.81581274%" r="100.873387%" gradientTransform="translate(0.074416,0.068158),scale(0.769231,1.000000),rotate(59.635810),translate(-0.074416,-0.068158)" id="radialGradient-3">
            <stop stop-color="#FFFFFF" stop-opacity="0.80159306" offset="0%"></stop>
            <stop stop-color="#5B72F6" stop-opacity="0.249069534" offset="100%"></stop>
        </radialGradient>
        <radialGradient cx="9.64585919%" cy="9.70003214%" fx="9.64585919%" fy="9.70003214%" r="59.8460756%" gradientTransform="translate(0.096459,0.097000),scale(0.769231,1.000000),rotate(65.032829),scale(1.000000,1.512724),translate(-0.096459,-0.097000)" id="radialGradient-4">
            <stop stop-color="#FFFFFF" stop-opacity="0.973410866" offset="0%"></stop>
            <stop stop-color="#FFFFFF" stop-opacity="0" offset="100%"></stop>
        </radialGradient>
        <circle id="path-5" cx="88" cy="36" r="12"></circle>
        <filter x="-3.1%" y="-1.0%" width="104.2%" height="104.2%" filterUnits="objectBoundingBox" id="filter-6">
            <feOffset dx="-0.5" dy="0.5" in="SourceAlpha" result="shadowOffsetOuter1"></feOffset>
            <feComposite in="shadowOffsetOuter1" in2="SourceAlpha" operator="out" result="shadowOffsetOuter1"></feComposite>
            <feColorMatrix values="0 0 0 0 0.941176471   0 0 0 0 0.611764706   0 0 0 0 0  0 0 0 0.5 0" type="matrix" in="shadowOffsetOuter1"></feColorMatrix>
        </filter>
        <filter x="-11.5%" y="-9.4%" width="120.8%" height="120.8%" filterUnits="objectBoundingBox" id="filter-7">
            <feMorphology radius="4" operator="erode" in="SourceAlpha" result="shadowSpreadInner1"></feMorphology>
            <feOffset dx="-0.5" dy="0.5" in="shadowSpreadInner1" result="shadowOffsetInner1"></feOffset>
            <feComposite in="shadowOffsetInner1" in2="SourceAlpha" operator="arithmetic" k2="-1" k3="1" result="shadowInnerInner1"></feComposite>
            <feColorMatrix values="0 0 0 0 0.980392157   0 0 0 0 0.654901961   0 0 0 0 0  0 0 0 0.5 0" type="matrix" in="shadowInnerInner1"></feColorMatrix>
        </filter>
        <circle id="path-8" cx="36" cy="12" r="12"></circle>
        <filter x="-3.1%" y="-1.0%" width="104.2%" height="104.2%" filterUnits="objectBoundingBox" id="filter-9">
            <feOffset dx="-0.5" dy="0.5" in="SourceAlpha" result="shadowOffsetOuter1"></feOffset>
            <feComposite in="shadowOffsetOuter1" in2="SourceAlpha" operator="out" result="shadowOffsetOuter1"></feComposite>
            <feColorMatrix values="0 0 0 0 0.941176471   0 0 0 0 0.611764706   0 0 0 0 0  0 0 0 0.5 0" type="matrix" in="shadowOffsetOuter1"></feColorMatrix>
        </filter>
        <filter x="-11.5%" y="-9.4%" width="120.8%" height="120.8%" filterUnits="objectBoundingBox" id="filter-10">
            <feMorphology radius="4" operator="erode" in="SourceAlpha" result="shadowSpreadInner1"></feMorphology>
            <feOffset dx="-0.5" dy="0.5" in="shadowSpreadInner1" result="shadowOffsetInner1"></feOffset>
            <feComposite in="shadowOffsetInner1" in2="SourceAlpha" operator="arithmetic" k2="-1" k3="1" result="shadowInnerInner1"></feComposite>
            <feColorMatrix values="0 0 0 0 0.980392157   0 0 0 0 0.654901961   0 0 0 0 0  0 0 0 0.5 0" type="matrix" in="shadowInnerInner1"></feColorMatrix>
        </filter>
        <linearGradient x1="50%" y1="50%" x2="0%" y2="22.5178359%" id="linearGradient-11">
            <stop stop-color="#FFB729" offset="0%"></stop>
            <stop stop-color="#5BAFF2" offset="100%"></stop>
        </linearGradient>
        <linearGradient x1="69.7273555%" y1="26.2723598%" x2="50%" y2="50%" id="linearGradient-12">
            <stop stop-color="#FFFFFF" stop-opacity="0.9" offset="0%"></stop>
            <stop stop-color="#FFFFFF" stop-opacity="0" offset="100%"></stop>
        </linearGradient>
        <linearGradient x1="100%" y1="12.4444444%" x2="33.1908384%" y2="43.1554678%" id="linearGradient-13">
            <stop stop-color="#33618E" offset="0%"></stop>
            <stop stop-color="#3D3835" offset="100%"></stop>
        </linearGradient>
        <linearGradient x1="69.7273555%" y1="17.5751623%" x2="50%" y2="50%" id="linearGradient-14">
            <stop stop-color="#FFFFFF" stop-opacity="0.9" offset="0%"></stop>
            <stop stop-color="#FFFFFF" stop-opacity="0" offset="100%"></stop>
        </linearGradient>
        <linearGradient x1="50%" y1="50%" x2="0%" y2="0%" id="linearGradient-15">
            <stop stop-color="#FFB729" offset="0%"></stop>
            <stop stop-color="#5BAFF2" offset="100%"></stop>
        </linearGradient>
        <linearGradient x1="69.7273555%" y1="6.83083736%" x2="50%" y2="50%" id="linearGradient-16">
            <stop stop-color="#FFFFFF" stop-opacity="0.9" offset="0%"></stop>
            <stop stop-color="#FFFFFF" stop-opacity="0" offset="100%"></stop>
        </linearGradient>
        <linearGradient x1="63.7636979%" y1="65.4147506%" x2="0%" y2="0%" id="linearGradient-17">
            <stop stop-color="#FFC85C" offset="0%"></stop>
            <stop stop-color="#5BAFF2" offset="100%"></stop>
        </linearGradient>
        <linearGradient x1="0%" y1="0%" x2="50%" y2="50%" id="linearGradient-18">
            <stop stop-color="#FFFFFF" stop-opacity="0.9" offset="0%"></stop>
            <stop stop-color="#FFFFFF" stop-opacity="0" offset="100%"></stop>
        </linearGradient>
    </defs>
    <g id="WEB" stroke="none" stroke-width="1" fill="none" fill-rule="evenodd">
        <g id="正在恢复钱包" transform="translate(-900.000000, -444.000000)">
            <g id="编组" transform="translate(795.000000, 444.000000)">
                <g id="编组-6备份-2" transform="translate(105.000000, 0.000000)">
                    <path d="M108,28.25 C110.140103,28.25 112.077603,29.1174483 113.480078,30.5199224 C114.882552,31.9223966 115.75,33.8598966 115.75,36 L115.75,36 L115.75,100 C115.75,102.140103 114.882552,104.077603 113.480078,105.480078 C112.077603,106.882552 110.140103,107.75 108,107.75 L108,107.75 L8,107.75 C5.85989659,107.75 3.92239659,106.882552 2.51992245,105.480078 C1.1174483,104.077603 0.25,102.140103 0.25,100 L0.25,100 L0.25,34 C0.25,32.4121813 0.893590672,30.9746813 1.93413601,29.934136 C2.97468134,28.8935907 4.41218134,28.25 6,28.25 L6,28.25 Z" id="矩形备份-6" stroke="url(#linearGradient-2)" stroke-width="0.5" fill="url(#linearGradient-1)" opacity="0.800000012"></path>
                    <path d="M110,58 L114,58 C117.313708,58 120,60.6862915 120,64 L120,70 L120,70 L110,70 L110,58 Z" id="矩形" fill="#34557D"></path>
                    <path d="M104,34.25 C105.587819,34.25 107.025319,34.8935907 108.065864,35.934136 C109.106409,36.9746813 109.75,38.4121813 109.75,40 L109.75,40 L109.75,108 C109.75,109.587819 109.106409,111.025319 108.065864,112.065864 C107.025319,113.106409 105.587819,113.75 104,113.75 L104,113.75 L12,113.75 C10.4121813,113.75 8.97468134,113.106409 7.93413601,112.065864 C6.89359067,111.025319 6.25,109.587819 6.25,108 L6.25,108 L6.25,40 C6.25,38.4121813 6.89359067,36.9746813 7.93413601,35.934136 C8.97468134,34.8935907 10.4121813,34.25 12,34.25 L12,34.25 Z" id="矩形" stroke="url(#radialGradient-4)" stroke-width="0.5" fill="url(#radialGradient-3)" opacity="0.600000024"></path>
                    <g id="椭圆形备份-4">
                        <use fill="black" fill-opacity="1" filter="url(#filter-6)" xlink:href="#path-5"></use>
                        <use fill="#FFEB00" fill-rule="evenodd" xlink:href="#path-5"></use>
                        <use fill="black" fill-opacity="1" filter="url(#filter-7)" xlink:href="#path-5"></use>
                        <circle stroke="#FFDB00" stroke-width="4" stroke-linejoin="square" cx="88" cy="36" r="10"></circle>
                    </g>
                    <g id="椭圆形备份-8">
                        <use fill="black" fill-opacity="1" filter="url(#filter-9)" xlink:href="#path-8"></use>
                        <use fill="#FFEB00" fill-rule="evenodd" xlink:href="#path-8"></use>
                        <use fill="black" fill-opacity="1" filter="url(#filter-10)" xlink:href="#path-8"></use>
                        <circle stroke="#FFDB00" stroke-width="4" stroke-linejoin="square" cx="36" cy="12" r="10"></circle>
                    </g>
                    <path d="M0.25,36.4535861 C0.565928918,37.1930141 1.02031838,37.8591531 1.58058262,38.4194174 C2.71161016,39.5504449 4.27411016,40.25 6,40.25 L6,40.25 L108,40.25 C110.140103,40.25 112.077603,41.1174483 113.480078,42.5199224 C114.882552,43.9223966 115.75,45.8598966 115.75,48 L115.75,48 L115.75,112 C115.75,114.140103 114.882552,116.077603 113.480078,117.480078 C112.077603,118.882552 110.140103,119.75 108,119.75 L108,119.75 L8,119.75 C5.85989659,119.75 3.92239659,118.882552 2.51992245,117.480078 C1.1174483,116.077603 0.25,114.140103 0.25,112 L0.25,112 Z" id="矩形备份-5" stroke="url(#linearGradient-12)" stroke-width="0.5" fill-opacity="0.7" fill="url(#linearGradient-11)"></path>
                    <path d="M119.74633,66.4621156 L119.75,84 C119.75,85.5878187 119.106409,87.0253187 118.065864,88.065864 C117.025319,89.1064093 115.587819,89.75 114,89.75 L114,89.75 L95,89.75 C93.6883237,89.75 92.5008237,89.2183381 91.6412428,88.3587572 C90.7816619,87.4991763 90.25,86.3116763 90.25,85 L90.25,85 L90.25,75 C90.25,73.6883237 90.7816619,72.5008237 91.6412428,71.6412428 C92.5008237,70.7816619 93.6883237,70.25 95,70.25 L95,70.25 L114,70.25 C115.683476,70.25 117.211488,69.5843997 118.335252,68.5020192 C118.932063,67.9271855 119.414836,67.2347923 119.74633,66.4621156 L119.74633,66.4621156 Z" id="矩形备份-7" stroke="url(#linearGradient-14)" stroke-width="0.5" fill-opacity="0.6" fill="url(#linearGradient-13)"></path>
                    <path d="M100,75.25 C101.311676,75.25 102.499176,75.7816619 103.358757,76.6412428 C104.218338,77.5008237 104.75,78.6883237 104.75,80 C104.75,81.3116763 104.218338,82.4991763 103.358757,83.3587572 C102.499176,84.2183381 101.311676,84.75 100,84.75 C98.6883237,84.75 97.5008237,84.2183381 96.6412428,83.3587572 C95.7816619,82.4991763 95.25,81.3116763 95.25,80 C95.25,78.6883237 95.7816619,77.5008237 96.6412428,76.6412428 C97.5008237,75.7816619 98.6883237,75.25 100,75.25 Z" id="椭圆形" stroke="url(#linearGradient-16)" stroke-width="0.5" fill-opacity="0.7" fill="url(#linearGradient-15)"></path>
                    <path d="M24.5096104,78.4172928 C26.025811,78.9616831 29.0849078,80.6627896 32.2479591,82.4510222 L32.9519858,82.8494066 L33.6427254,83.2406824 C36.1695389,84.6725725 38.6011522,86.0563842 39.9109241,86.802637 C39.9150011,86.8049599 39.919089,86.8072891 39.9233514,86.8095256 L39.9279996,86.8115792 C40.7137524,87.1628023 40.3235496,87.664445 40.1961226,87.800646 L40.1653465,87.831801 L40.1653465,87.831801 C40.1609462,87.8358952 40.0312337,87.9526768 39.8592282,88.005918 L39.8592282,88.005918 L35.2386411,90.6441305 C35.350466,90.7956545 35.4146958,90.8760373 35.4146958,90.8760373 C35.4146958,90.8760373 38.1037007,94.2412899 42.0342682,96.0244234 C46.2415759,98.2142009 50.186349,98.4765422 55.0136427,96.6516982 C58.1057036,95.4849258 61.7397388,92.5344314 64.3919228,88.1688027 L64.3919228,88.1688027 L69.2237578,91.445681 C68.4381578,92.5906133 64.3166718,98.3010679 58.1704549,101.521435 C51.3409105,105.097575 42.9234735,104.065475 37.4069265,100.598362 C34.7913266,98.9559121 32.9936713,97.4344767 31.8273752,96.2875369 C30.5700217,95.0127382 30.1091183,94.3452838 30.0271157,94.221681 C30.0070539,94.1914416 29.9658171,94.1276533 29.9049259,94.0243214 L29.9049259,94.0243214 L24.8882573,96.8529694 C24.8839878,96.8557037 24.8816317,96.8571099 24.8816316,96.8571099 L24.8715086,96.8628078 C24.8188918,96.8914609 24.5722809,97.0138968 24.3952361,96.8968498 C24.2932347,96.8294152 24.25,96.6723261 24.25,96.4248163 L24.25,96.4248163 L24.2504552,79.1831748 C24.2539079,79.0801248 24.2609786,78.6219784 24.5096104,78.4172928 Z M37.8294962,58.4794998 C44.6637067,54.9033831 53.0764879,55.9331289 58.5930586,59.4002164 C63.8045068,62.6727515 65.760941,65.4609755 65.9657267,65.7661383 L65.983995,65.7938188 L71.1102599,63.1466107 L71.7495444,80.8154319 C71.7464916,80.9066861 71.7406618,81.2759342 71.5675101,81.5017592 C70.1119186,81.1469757 66.5098342,79.109633 62.9388352,77.0873498 L62.9388352,77.0873498 L62.2847677,76.7168081 C59.7840262,75.2995773 57.3863067,73.9350376 56.0890631,73.1959153 C55.2943992,72.8395852 55.6781097,72.3368246 55.8039589,72.2004507 L55.8387458,72.1651702 L60.7680584,69.3505294 L60.7680584,69.3505294 L60.6488267,69.20647 C59.9027937,68.3160817 57.4111703,65.5372253 53.9657196,63.9741975 C49.7584816,61.78442 45.8136386,61.5220777 40.9863434,63.3468945 C37.8942884,64.5136647 34.2602471,67.4664602 31.6080712,71.829855 L31.6080712,71.829855 L26.7762003,68.5551765 C27.5617822,67.4099159 31.6832787,61.697825 37.8294962,58.4794998 Z" id="形状" stroke="url(#linearGradient-18)" stroke-width="0.5" fill-opacity="0.7" fill="url(#linearGradient-17)"></path>
                </g>
            </g>
        </g>
    </g>
</svg>

<svg width="120" height="120" xmlns="http://www.w3.org/2000/svg" xmlns:xlink="http://www.w3.org/1999/xlink"><defs><linearGradient x1="100%" y1="26.219%" x2="33.191%" y2="45.666%" id="b"><stop stop-color="#33618e" offset="0"/><stop stop-color="#3d3835" offset="100%"/></linearGradient><linearGradient x1="0" y1="0" x2="50%" y2="50%" id="q"><stop stop-color="#fff" stop-opacity=".9" offset="0"/><stop stop-color="#fff" stop-opacity="0" offset="100%"/></linearGradient><linearGradient x1="63.764%" y1="65.415%" x2="0" y2="0" id="r"><stop stop-color="#ffc85c" offset="0"/><stop stop-color="#5baff2" offset="100%"/></linearGradient><linearGradient x1="69.727%" y1="6.831%" x2="50%" y2="50%" id="o"><stop stop-color="#fff" stop-opacity=".9" offset="0"/><stop stop-color="#fff" stop-opacity="0" offset="100%"/></linearGradient><linearGradient x1="50%" y1="50%" x2="0" y2="0" id="p"><stop stop-color="#ffb729" offset="0"/><stop stop-color="#5baff2" offset="100%"/></linearGradient><linearGradient x1="69.727%" y1="17.575%" x2="50%" y2="50%" id="m"><stop stop-color="#fff" stop-opacity=".9" offset="0"/><stop stop-color="#fff" stop-opacity="0" offset="100%"/></linearGradient><linearGradient x1="100%" y1="12.444%" x2="33.191%" y2="43.155%" id="n"><stop stop-color="#33618e" offset="0"/><stop stop-color="#3d3835" offset="100%"/></linearGradient><linearGradient x1="69.727%" y1="26.272%" x2="50%" y2="50%" id="k"><stop stop-color="#fff" stop-opacity=".9" offset="0"/><stop stop-color="#fff" stop-opacity="0" offset="100%"/></linearGradient><linearGradient x1="50%" y1="50%" x2="0" y2="22.518%" id="l"><stop stop-color="#ffb729" offset="0"/><stop stop-color="#5baff2" offset="100%"/></linearGradient><linearGradient x1="69.727%" y1="29.468%" x2="50%" y2="50%" id="a"><stop stop-color="#fff" stop-opacity=".9" offset="0"/><stop stop-color="#fff" stop-opacity="0" offset="100%"/></linearGradient><filter x="-3.1%" y="-1%" width="104.2%" height="104.2%" filterUnits="objectBoundingBox" id="h"><feOffset dx="-.5" dy=".5" in="SourceAlpha" result="shadowOffsetOuter1"/><feComposite in="shadowOffsetOuter1" in2="SourceAlpha" operator="out" result="shadowOffsetOuter1"/><feColorMatrix values="0 0 0 0 0.941176471 0 0 0 0 0.611764706 0 0 0 0 0 0 0 0 0.5 0" in="shadowOffsetOuter1"/></filter><filter x="-11.5%" y="-9.4%" width="120.8%" height="120.8%" filterUnits="objectBoundingBox" id="g"><feMorphology radius="4" in="SourceAlpha" result="shadowSpreadInner1"/><feOffset dx="-.5" dy=".5" in="shadowSpreadInner1" result="shadowOffsetInner1"/><feComposite in="shadowOffsetInner1" in2="SourceAlpha" operator="arithmetic" k2="-1" k3="1" result="shadowInnerInner1"/><feColorMatrix values="0 0 0 0 0.980392157 0 0 0 0 0.654901961 0 0 0 0 0 0 0 0 0.5 0" in="shadowInnerInner1"/></filter><filter x="-3.1%" y="-1%" width="104.2%" height="104.2%" filterUnits="objectBoundingBox" id="e"><feOffset dx="-.5" dy=".5" in="SourceAlpha" result="shadowOffsetOuter1"/><feComposite in="shadowOffsetOuter1" in2="SourceAlpha" operator="out" result="shadowOffsetOuter1"/><feColorMatrix values="0 0 0 0 0.941176471 0 0 0 0 0.611764706 0 0 0 0 0 0 0 0 0.5 0" in="shadowOffsetOuter1"/></filter><filter x="-11.5%" y="-9.4%" width="120.8%" height="120.8%" filterUnits="objectBoundingBox" id="j"><feMorphology radius="4" in="SourceAlpha" result="shadowSpreadInner1"/><feOffset dx="-.5" dy=".5" in="shadowSpreadInner1" result="shadowOffsetInner1"/><feComposite in="shadowOffsetInner1" in2="SourceAlpha" operator="arithmetic" k2="-1" k3="1" result="shadowInnerInner1"/><feColorMatrix values="0 0 0 0 0.980392157 0 0 0 0 0.654901961 0 0 0 0 0 0 0 0 0.5 0" in="shadowInnerInner1"/></filter><radialGradient cx="9.646%" cy="9.7%" fx="9.646%" fy="9.7%" r="59.846%" gradientTransform="matrix(.3247 .90655 -1.0549 .63852 .167 -.052)" id="c"><stop stop-color="#fff" stop-opacity=".973" offset="0"/><stop stop-color="#fff" stop-opacity="0" offset="100%"/></radialGradient><radialGradient cx="7.442%" cy="6.816%" fx="7.442%" fy="6.816%" r="100.873%" gradientTransform="scale(.76923 1) rotate(59.636 .086 .088)" id="d"><stop stop-color="#fff" stop-opacity=".802" offset="0"/><stop stop-color="#5b72f6" stop-opacity=".249" offset="100%"/></radialGradient><circle id="i" cx="36" cy="12" r="12"/><circle id="f" cx="88" cy="36" r="12"/></defs><g fill="none" fill-rule="evenodd"><path d="M108 28.25c2.14 0 4.078.867 5.48 2.27a7.726 7.726 0 0 1 2.27 5.48v64c0 2.14-.867 4.078-2.27 5.48a7.726 7.726 0 0 1-5.48 2.27H8a7.726 7.726 0 0 1-5.48-2.27A7.726 7.726 0 0 1 .25 100V34c0-1.588.644-3.025 1.684-4.066A5.732 5.732 0 0 1 6 28.25z" stroke="url(#a)" stroke-width=".5" fill="url(#b)" opacity=".8"/><path d="M110 58h4a6 6 0 0 1 6 6v6h-10V58z" fill="#34557d"/><path d="M104 34.25c1.588 0 3.025.644 4.066 1.684A5.732 5.732 0 0 1 109.75 40v68a5.732 5.732 0 0 1-1.684 4.066A5.732 5.732 0 0 1 104 113.75H12a5.732 5.732 0 0 1-4.066-1.684A5.732 5.732 0 0 1 6.25 108V40c0-1.588.644-3.025 1.684-4.066A5.732 5.732 0 0 1 12 34.25z" stroke="url(#c)" stroke-width=".5" fill="url(#d)" opacity=".6"/><g><use fill="#000" filter="url(#e)" xlink:href="#f"/><use fill="#ffeb00" xlink:href="#f"/><use fill="#000" filter="url(#g)" xlink:href="#f"/><circle stroke="#ffdb00" stroke-width="4" stroke-linejoin="square" cx="88" cy="36" r="10"/></g><g><use fill="#000" filter="url(#h)" xlink:href="#i"/><use fill="#ffeb00" xlink:href="#i"/><use fill="#000" filter="url(#j)" xlink:href="#i"/><circle stroke="#ffdb00" stroke-width="4" stroke-linejoin="square" cx="36" cy="12" r="10"/></g><path d="M.25 36.454A6.26 6.26 0 0 0 6 40.25h102c2.14 0 4.078.867 5.48 2.27a7.726 7.726 0 0 1 2.27 5.48v64c0 2.14-.867 4.078-2.27 5.48a7.726 7.726 0 0 1-5.48 2.27H8a7.726 7.726 0 0 1-5.48-2.27A7.726 7.726 0 0 1 .25 112z" stroke="url(#k)" stroke-width=".5" fill-opacity=".7" fill="url(#l)"/><path d="M119.746 66.462 119.75 84a5.732 5.732 0 0 1-1.684 4.066A5.732 5.732 0 0 1 114 89.75H95c-1.312 0-2.5-.532-3.359-1.391S90.25 86.312 90.25 85V75c0-1.312.532-2.5 1.391-3.359S93.688 70.25 95 70.25h19a6.262 6.262 0 0 0 5.746-3.788z" stroke="url(#m)" stroke-width=".5" fill-opacity=".6" fill="url(#n)"/><path d="M100 75.25c1.312 0 2.5.532 3.359 1.391.86.86 1.391 2.047 1.391 3.359s-.532 2.5-1.391 3.359A4.735 4.735 0 0 1 100 84.75c-1.312 0-2.5-.532-3.359-1.391S95.25 81.312 95.25 80s.532-2.5 1.391-3.359S98.688 75.25 100 75.25z" stroke="url(#o)" stroke-width=".5" fill-opacity=".7" fill="url(#p)"/><path d="M24.51 78.417c1.516.545 4.575 2.246 7.738 4.034l.704.398.69.392c2.528 1.432 4.96 2.815 6.269 3.562l.012.007.005.002c.786.35.396.852.268.989l-.03.03a.905.905 0 0 1-.307.175l-4.62 2.638c.111.152.176.232.176.232s2.689 3.365 6.62 5.148c4.207 2.19 8.151 2.453 12.979.628 3.092-1.167 6.726-4.118 9.378-8.483l4.832 3.277c-.786 1.145-4.907 6.855-11.054 10.075-6.83 3.577-15.247 2.544-20.763-.923-2.616-1.642-4.413-3.164-5.58-4.31-1.257-1.275-1.718-1.943-1.8-2.066a4.427 4.427 0 0 1-.122-.198l-5.017 2.829a.276.276 0 0 1-.006.004l-.01.006c-.053.028-.3.15-.477.034-.102-.068-.145-.225-.145-.472V79.183c.004-.103.011-.561.26-.766zM37.83 58.48c6.834-3.576 15.246-2.546 20.763.921 5.212 3.273 7.168 6.061 7.373 6.366l.018.028 5.126-2.647.64 17.668c-.004.092-.01.46-.182.687-1.456-.355-5.058-2.392-8.63-4.415l-.653-.37a3277.59 3277.59 0 0 1-6.196-3.521c-.795-.356-.41-.86-.285-.996l.035-.035 4.93-2.814-.12-.145c-.746-.89-3.238-3.669-6.683-5.232-4.208-2.19-8.152-2.452-12.98-.627-3.092 1.167-6.726 4.12-9.378 8.483l-4.832-3.275c.786-1.145 4.907-6.857 11.053-10.076z" stroke="url(#q)" stroke-width=".5" fill-opacity=".7" fill="url(#r)"/></g></svg>
